X:17467
T:Tiffy and Pluto
R:strathspey
C:Brenda Stubbert, SOCAN
O:20th century Cape Breton
S:Tune ofthe Month, September 2000
D:Some Tasty Tunes, Brenda Stubbert, 1999
A:http://www.capebretonisland.com/Music/Stubbert
N:Contacts ...
N:Recordings and bookings
N:..... <brenda@cranfordpub.com
N:Tune books and related recordings
N:..... Cranford Publications <http://www.cranfordpub.com>
H:Copyrights:Published by Stubbert Music, and Cranford Publications
Z:Paul Stewart Cranford 
Q:288
L:1/8
M:C
K:Gdor
c|Ac A>GG<A|F<CC>A c>BA>F|Gc A>GG<A|F<CF<A G2 G>A|!
Gc A>GG<A|F<CC>A c>BA>F|Gc A>GG<A|F<CF<A G2 (3GAA||!
|:G>gg>f g>dd<e|f>dcGF<A|G>gg>f g>dd<e|f>de>c d/d/d d<e|!
d>gg>f g>dd<e|f>dcGF<A|Gc A>GG<A|F<CF<A G2 (3GAA|]!
